X: 4053
T: HAUD THE LASS TILL I COME AT HER.
R: Reel
%R: reel
B: James Kerr "Merry Melodies" v.4 p.08 #53
Z: 2016 John Chambers <jc:trillian.mit.edu>
M: C|
L: 1/8
K: D
|:\
Aeeg fdec | AeeB dGdB |\
Aeeg fdef | gedg BGdB ::\
A>g (f/g/a) fdec | A>g (f/g/a) GBdB |\
A>g (f/g/a) fdef | gedg BGdB :|

%%sep 1 1 500
%%sep 1 1 500

